recipes/skype/icon.svg

<svg height="80" viewBox="0 0 80 80" width="80" xmlns="http://www.w3.org/2000/svg"><path d="m76.5037587 45.6980046c.2979118-1.8849188.4547564-3.8132714.4547564-5.7815313 0-20.4575406-16.5832019-37.04037121-37.0412993-37.04037121-1.9630627 0-3.8969838.16167053-5.780232.4562413-3.4114154-2.11081207-7.4377727-3.33234339-11.7527611-3.33234339-12.3617633 0-22.38329463 10.020232-22.38329463 22.3832947 0 4.3140603 1.22227379 8.3370765 3.33215778 11.7553596-.29197216 1.8880742-.45271462 3.8103016-.45271462 5.7785615 0 20.4590255 16.58283067 37.0368445 37.03610207 37.0368445 1.9647332 0 3.8992112-.1514617 5.7822738-.4486311 3.414942 2.1067286 7.4379582 3.331601 11.7520186 3.331601 12.3651044 0 22.385522-10.0228307 22.385522-22.3855221.0009281-4.3157308-1.2206032-8.337819-3.332529-11.7535035zm-19.0000928 11.0648724c-1.5669606 2.2557773-3.8687703 4.0185615-6.8764733 5.2861253-3.0138283 1.2709049-6.5759629 1.9032947-10.6895592 1.9032947-4.9303016 0-9.0123434-.8627378-12.2344315-2.6049188-2.2839908-1.2475174-4.1416242-2.9210209-5.5697448-5.0078886-1.4310905-2.0885383-2.156659-4.1338283-2.156659-6.1280743 0-1.1764269.4486311-2.1995359 1.321949-3.0336891.882413-.8402784 2.0189327-1.2614385 3.3603712-1.2614385 1.0988399 0 2.0426914.3309513 2.8111369.9867285.7626914.6555917 1.4025058 1.6087239 1.9257541 2.8664502.6271926 1.4570765 1.3083991 2.6750812 2.033225 3.6469605.7203713.9598144 1.7341996 1.7611137 3.047239 2.3883063 1.2985615.6288631 3.0268214.9432946 5.18942.9432946 2.9596287 0 5.3514617-.6401856 7.1819953-1.903109 1.8398144-1.2744316 2.7235267-2.825058 2.7235267-4.6986543 0-1.4943851-.4764733-2.6812065-1.4535499-3.6064965-.985986-.937355-2.2593039-1.6512297-3.8394431-2.1492344-1.5862645-.5032018-3.7160093-1.0368445-6.3849652-1.5990719-3.5838515-.782181-6.5811601-1.6926218-9.0084455-2.7381902-2.4304408-1.0494664-4.3660325-2.4840836-5.8006497-4.2962413-1.437587-1.8299768-2.1544315-4.1045012-2.1544315-6.7985151 0-2.5689095.7567517-4.8662645 2.2717401-6.8657077 1.514246-2.0050116 3.705058-3.5396751 6.5616706-4.6086311 2.8465893-1.0685847 6.1978654-1.6031554 10.0371229-1.6031554 3.0702553 0 5.7260325.3552668 7.974014 1.0620881 2.2418561.7120186 4.1106264 1.651601 5.6048259 2.8306265 1.4847332 1.1764269 2.5772622 2.4172622 3.2692344 3.7193503.6914153 1.3059861 1.0396288 2.5815314 1.0396288 3.8262645 0 1.1573086-.4486311 2.2069606-1.3228771 3.1268678-.8740603.9212065-1.9922042 1.3908121-3.2980046 1.3865429-1.1771694 0-2.1006033-.2715545-2.7409745-.8464037-.6236659-.5561021-1.2787007-1.4414849-1.9871926-2.6754524-.8955916-1.7217634-1.9682598-3.0632019-3.2155916-4.022645-1.214478-.9416242-3.2181903-1.431833-6.0063109-1.4258933-2.5796752 0-4.6437123.5271462-6.2015777 1.558051-1.5675175 1.0474246-2.3168446 2.262645-2.3203713 3.6864966.0025986.8922505.2591184 1.6445475.7753132 2.2878886.5241764.6492807 1.2534571 1.2118793 2.1908121 1.6861253.9377262.4816705 1.8916009.8541995 2.850116 1.1222274.9698376.2748955 2.5789327.6722969 4.8155917 1.198515 2.8050116.6045476 5.3492343 1.28 7.6354524 2.0161485 2.2817633.7398608 4.2290487 1.6321114 5.8377726 2.6951276 1.6215313 1.0598608 2.8889095 2.4111369 3.7935963 4.0432483.9111833 1.63471 1.3650116 3.6313689 1.3650116 5.9808817.0035267 2.8291415-.784594 5.3735499-2.3552668 7.6258004z" fill="#12a5f4" fill-rule="evenodd"/></svg>

<?xml version="1.0" encoding="UTF-8" standalone="no"?>
<svg width="80px" height="80px" viewBox="0 0 80 80" version="1.1" xmlns="http://www.w3.org/2000/svg" xmlns:xlink="http://www.w3.org/1999/xlink">
    <!-- Generator: Sketch 3.7.2 (28276) - http://www.bohemiancoding.com/sketch -->
    <title>skype</title>
    <desc>Created with Sketch.</desc>
    <defs></defs>
    <g id="icons" stroke="none" stroke-width="1" fill="none" fill-rule="evenodd">
        <g id="skype" fill="#12A5F4">
            <g id="skype12">
                <g id="Capa_1">
                    <path d="M76.5037587,45.6980046 C76.8016705,43.8130858 76.9585151,41.8847332 76.9585151,39.9164733 C76.9585151,19.4589327 60.3753132,2.87610209 39.9172158,2.87610209 C37.9541531,2.87610209 36.020232,3.03777262 34.1369838,3.33234339 C30.7255684,1.22153132 26.6992111,0 22.3842227,0 C10.0224594,0 0.000928074246,10.020232 0.000928074246,22.3832947 C0.000928074246,26.697355 1.22320186,30.7203712 3.33308585,34.1386543 C3.04111369,36.0267285 2.88037123,37.9489559 2.88037123,39.9172158 C2.88037123,60.3762413 19.4632019,76.9540603 39.9164733,76.9540603 C41.8812065,76.9540603 43.8156845,76.8025986 45.6987471,76.5054292 C49.1136891,78.6121578 53.1367053,79.8370302 57.4507657,79.8370302 C69.8158701,79.8370302 79.8362877,69.8141995 79.8362877,57.4515081 C79.8372158,53.1357773 78.6156845,49.1136891 76.5037587,45.6980046 L76.5037587,45.6980046 Z M57.5036659,56.762877 C55.9367053,59.0186543 53.6348956,60.7814385 50.6271926,62.0490023 C47.6133643,63.3199072 44.0512297,63.952297 39.9376334,63.952297 C35.0073318,63.952297 30.92529,63.0895592 27.7032019,61.3473782 C25.4192111,60.0998608 23.5615777,58.4263573 22.1334571,56.3394896 C20.7023666,54.2509513 19.9767981,52.2056613 19.9767981,50.2114153 C19.9767981,49.0349884 20.4254292,48.0118794 21.2987471,47.1777262 C22.1811601,46.3374478 23.3176798,45.9162877 24.6591183,45.9162877 C25.7579582,45.9162877 26.7018097,46.247239 27.4702552,46.9030162 C28.2329466,47.5586079 28.872761,48.5117401 29.3960093,49.7694664 C30.0232019,51.2265429 30.7044084,52.4445476 31.4292343,53.4164269 C32.1496056,54.3762413 33.1634339,55.1775406 34.4764733,55.8047332 C35.7750348,56.4335963 37.5032947,56.7480278 39.6658933,56.7480278 C42.625522,56.7480278 45.017355,56.1078422 46.8478886,54.8449188 C48.687703,53.5704872 49.5714153,52.0198608 49.5714153,50.1462645 C49.5714153,48.6518794 49.094942,47.465058 48.1178654,46.539768 C47.1318794,45.602413 45.8585615,44.8885383 44.2784223,44.3905336 C42.6921578,43.8873318 40.562413,43.3536891 37.8934571,42.7914617 C34.3096056,42.0092807 31.312297,41.0988399 28.8850116,40.0532715 C26.4545708,39.0038051 24.5189791,37.5691879 23.0843619,35.7570302 C21.6467749,33.9270534 20.9299304,31.652529 20.9299304,28.9585151 C20.9299304,26.3896056 21.6866821,24.0922506 23.2016705,22.0928074 C24.7159165,20.0877958 26.9067285,18.5531323 29.7633411,17.4841763 C32.6099304,16.4155916 35.9612065,15.8810209 39.800464,15.8810209 C42.8707193,15.8810209 45.5264965,16.2362877 47.774478,16.943109 C50.0163341,17.6551276 51.8851044,18.59471 53.3793039,19.7737355 C54.8640371,20.9501624 55.9565661,22.1909977 56.6485383,23.4930858 C57.3399536,24.7990719 57.6881671,26.0746172 57.6881671,27.3193503 C57.6881671,28.4766589 57.239536,29.5263109 56.36529,30.4462181 C55.4912297,31.3674246 54.3730858,31.8370302 53.0672854,31.832761 C51.890116,31.832761 50.9666821,31.5612065 50.3263109,30.9863573 C49.702645,30.4302552 49.0476102,29.5448724 48.3391183,28.3109049 C47.4435267,26.5891415 46.3708585,25.247703 45.1235267,24.2882599 C43.9090487,23.3466357 41.9053364,22.8564269 39.1172158,22.8623666 C36.5375406,22.8623666 34.4735035,23.3895128 32.9156381,24.4204176 C31.3481206,25.4678422 30.5987935,26.6830626 30.5952668,28.1069142 C30.5978654,28.9991647 30.8543852,29.7514617 31.37058,30.3948028 C31.8947564,31.0440835 32.6240371,31.6066821 33.5613921,32.0809281 C34.4991183,32.5625986 35.452993,32.9351276 36.4115081,33.2031555 C37.3813457,33.478051 38.9904408,33.8754524 41.2270998,34.4016705 C44.0321114,35.0062181 46.5763341,35.6816705 48.8625522,36.417819 C51.1443155,37.1576798 53.0916009,38.0499304 54.7003248,39.1129466 C56.3218561,40.1728074 57.5892343,41.5240835 58.4939211,43.1561949 C59.4051044,44.7909049 59.8589327,46.7875638 59.8589327,49.1370766 C59.8624594,51.9662181 59.0743387,54.5106265 57.5036659,56.762877 L57.5036659,56.762877 Z" id="Skype"></path>
                </g>
            </g>
        </g>
    </g>
</svg>
